tenants/kidsweek/icons/channel_linkedin.svg

<svg fill="none" height="32" viewBox="0 0 32 32" width="32" xmlns="http://www.w3.org/2000/svg" xmlns:xlink="http://www.w3.org/1999/xlink"><clipPath id="a"><path d="m0 0h32v32h-32z"/></clipPath><g clip-path="url(#a)"><circle cx="16" cy="16" fill="#e4003a" r="16"/><path d="m11.3578 9.67975c-.0002.44525-.1773.87225-.4923 1.18695s-.7422.4913-1.18743.4911c-.44527-.0002-.87222-.1773-1.18692-.4923s-.49137-.7422-.49115-1.18743c.00022-.44527.17732-.87222.49233-1.18692.31502-.3147.74214-.49137 1.18742-.49115.44525.00022.87225.17732 1.18695.49233.3147.31502.4913.74214.4911 1.18742zm.0504 2.92125h-3.35783v10.51h3.35783zm5.3053 0h-3.341v10.51h3.3075v-5.5152c0-3.0724 4.0042-3.3578 4.0042 0v5.5152h3.3158v-6.6569c0-5.1794-5.9265-4.9863-7.32-2.4428z" fill="#fff"/></g></svg>

<svg width="32" height="32" viewBox="0 0 32 32" fill="none" xmlns="http://www.w3.org/2000/svg">
<g clip-path="url(#clip0_2137_28862)">
<circle cx="16" cy="16" r="16" fill="#E4003A"/>
<path d="M11.3578 9.67975C11.3576 10.125 11.1805 10.552 10.8655 10.8667C10.5505 11.1814 10.1233 11.358 9.67807 11.3578C9.2328 11.3576 8.80585 11.1805 8.49115 10.8655C8.17645 10.5505 7.99978 10.1233 8 9.67807C8.00022 9.2328 8.17732 8.80585 8.49233 8.49115C8.80735 8.17645 9.23447 7.99978 9.67975 8C10.125 8.00022 10.552 8.17732 10.8667 8.49233C11.1814 8.80735 11.358 9.23447 11.3578 9.67975ZM11.4082 12.601H8.05037V23.111H11.4082V12.601ZM16.7135 12.601H13.3725V23.111H16.68V17.5958C16.68 14.5234 20.6842 14.238 20.6842 17.5958V23.111H24V16.4541C24 11.2747 18.0735 11.4678 16.68 14.0113L16.7135 12.601Z" fill="white"/>
</g>
<defs>
<clipPath id="clip0_2137_28862">
<rect width="32" height="32" fill="white"/>
</clipPath>
</defs>
</svg>
